X: 10481
T: THE NAVVIE ON THE LINE -- Hornpipe
C: By Jas. Hill
C: Arranged by W. B. Laybourn
R: hornpipe
B: K\"ohler's Violin Repository, v.1, 1885 p.48 #1
F: http://www.archive.org/details/klersviolinrepos01edin
Z: 2011 John Chambers <jc:trillian.mit.edu>
M: C|
L: 1/8
K: A
(uc>d) |\
e>(ag)>(f e)>(dc)>(B | A)>cE>A c2((3cBA) | G>BE>G B2((3BAG) | A>cE>A c2(c>d) |
e>(ag)>(f e)>(dc)>(B | A)>cE>A c2((3cBA) | G>AB>c d>ef>g | a2A2 A2 :|
|: ((3ucBA) |\
G>BE>G B2((3BAG) | A>cE>A c2((3cBA) | G>BE>G B2((3BAG) | A>cE>A c2(c>d) |
e>(ag)>(f e)>(dc)>(B | A)>cE>A c2((3cBA) | G>AB>c d>ef>g | a2A2 A2 :|

%%sep 2 1 500

